svgs/thin/lasso-sparkles.svg

<svg xmlns="http://www.w3.org/2000/svg" viewBox="0 0 576 512"><!--! Font Awesome Pro 6.0.0-alpha3 by @fontawesome - https://fontawesome.com License - https://fontawesome.com/license (Commercial License) --><path d="M560 424h-56V368c0-4.406-3.594-8-8-8s-8 3.594-8 8v56H432c-4.406 0-8 3.594-8 8s3.594 8 8 8h56v56c0 4.406 3.594 8 8 8s8-3.594 8-8v-56h56c4.406 0 8-3.594 8-8S564.4 424 560 424zM264 80c0 4.406 3.594 8 8 8h56V144c0 4.406 3.594 8 8 8s8-3.594 8-8V88h56c4.406 0 8-3.594 8-8s-3.594-8-8-8h-56V16c0-4.406-3.594-8-8-8s-8 3.594-8 8v56H272C267.6 72 264 75.59 264 80zM576 175.1c0-74.36-75.57-137.8-182.2-163.6C388.8 11.2 384 15.05 384 20.17c0 3.666 2.553 6.812 6.119 7.668C489.6 51.65 560 108.1 560 175.1c0 88.23-122 160-272 160c-149.1 0-272-71.79-272-160C16 89.26 133.8 18.45 280.2 16C284.5 15.93 288 12.46 288 8.119C288 3.691 284.4-.0742 279.9 0C124.6 2.615 0 80.41 0 175.1c0 68.86 64.84 128.3 159.1 157.2C193.2 345.2 216 376.5 216 412c0 46.32-38.66 83.98-86.19 83.98H40c-4.422 0-8 3.594-8 8C32 508.4 35.58 512 40 512h89.81C186.2 512 232 467.2 232 412c0-25.73-10.16-49.54-27.11-67.55C231.2 349.3 259.1 351.1 288 351.1C447.1 351.1 576 273.2 576 175.1z"/></svg>

<svg xmlns="http://www.w3.org/2000/svg" viewBox="0 0 576 512"><!-- Font Awesome Pro 6.0.0-alpha2 by @fontawesome - https://fontawesome.com License - https://fontawesome.com/license (Commercial License) --><path d="M560 424H504V368C504 363.594 500.406 360 496 360S488 363.594 488 368V424H432C427.594 424 424 427.594 424 432S427.594 440 432 440H488V496C488 500.406 491.594 504 496 504S504 500.406 504 496V440H560C564.406 440 568 436.406 568 432S564.406 424 560 424ZM264 80C264 84.406 267.594 88 272 88H328V144C328 148.406 331.594 152 336 152S344 148.406 344 144V88H400C404.406 88 408 84.406 408 80S404.406 72 400 72H344V16C344 11.594 340.406 8 336 8S328 11.594 328 16V72H272C267.594 72 264 75.594 264 80ZM576 175.955C576 101.598 500.43 38.182 393.775 12.4C388.807 11.199 384 15.055 384 20.168C384 23.834 386.553 26.98 390.119 27.836C489.58 51.652 560 108.988 560 175.955C560 264.189 437.982 335.977 288 335.977C138.02 335.977 16 264.189 16 175.955C16 89.264 133.793 18.447 280.166 16C284.5 15.928 288 12.455 288 8.119V7.988C288 3.561 284.352 -0.074 279.924 0C124.602 2.615 0 80.391 0 175.955C0 244.816 64.842 304.277 159.105 333.203C193.186 345.232 216 376.537 216 412.018C216 458.336 177.344 495.998 129.812 495.998H40C35.578 495.998 32 499.592 32 503.998C32 508.406 35.578 512 40 512H129.812C186.156 512 232 467.15 232 412.018C232 386.291 221.836 362.48 204.889 344.463C231.217 349.307 259.088 351.979 288 351.979C447.059 351.979 576 273.172 576 175.955Z"/></svg>
